packages/katcn/src/icons/svg/userWithCircle-solid.svg

<svg width="24" height="25" viewBox="0 0 24 25" fill="none" xmlns="http://www.w3.org/2000/svg">
<path d="M12 2.97607C6.5 2.97607 2 7.47607 2 12.9761C2 15.5761 3 18.0761 4.9 19.9761L5 20.0761C6.2 21.1761 7.6 22.0761 9.1 22.5761C10.1 22.8761 11.1 22.9761 12.1 22.9761C13.1 22.9761 14.1 22.7761 15.1 22.5761C16.6 22.0761 18 21.2761 19.2 20.1761L19.3 20.0761C21.1 18.1761 22.2 15.6761 22.2 13.0761C22 7.47607 17.5 2.97607 12 2.97607ZM12 4.97607C16.4 4.97607 20 8.57607 20 12.9761C20 14.6761 19.5 16.2761 18.5 17.5761C17.7 16.2761 16.5 15.3761 15.1 14.7761C15.8 13.9761 16.3 12.9761 16.3 11.7761C16.3 9.37607 14.4 7.47607 12 7.47607C9.6 7.47607 7.7 9.37607 7.7 11.7761C7.7 12.9761 8.2 13.9761 8.9 14.7761C7.5 15.3761 6.4 16.3761 5.5 17.5761C4.5 16.2761 4 14.5761 4 12.9761C4 8.57607 7.6 4.97607 12 4.97607Z" fill="black"/>
</svg>

<svg xmlns="http://www.w3.org/2000/svg" fill="none" viewBox="0 0 24 25"><path fill="#000" d="M12 2.976c-5.5 0-10 4.5-10 10 0 2.6 1 5.1 2.9 7l.1.1c1.2 1.1 2.6 2 4.1 2.5 1 .3 2 .4 3 .4s2-.2 3-.4c1.5-.5 2.9-1.3 4.1-2.4l.1-.1c1.8-1.9 2.9-4.4 2.9-7-.2-5.6-4.7-10.1-10.2-10.1m0 2c4.4 0 8 3.6 8 8 0 1.7-.5 3.3-1.5 4.6-.8-1.3-2-2.2-3.4-2.8.7-.8 1.2-1.8 1.2-3 0-2.4-1.9-4.3-4.3-4.3s-4.3 1.9-4.3 4.3c0 1.2.5 2.2 1.2 3-1.4.6-2.5 1.6-3.4 2.8-1-1.3-1.5-3-1.5-4.6 0-4.4 3.6-8 8-8"/></svg>
